src/apps/scalable/pdfstudio.svg

<?xml version="1.0" encoding="UTF-8" standalone="no"?>
<svg
   width="128"
   height="128"
   viewBox="0 0 33.866666 33.866668"
   version="1.1"
   id="svg1443"
   inkscape:version="1.1.2 (0a00cf5339, 2022-02-04)"
   sodipodi:docname="pdfstudio.svg"
   xmlns:inkscape="http://www.inkscape.org/namespaces/inkscape"
   xmlns:sodipodi="http://sodipodi.sourceforge.net/DTD/sodipodi-0.dtd"
   xmlns:xlink="http://www.w3.org/1999/xlink"
   xmlns="http://www.w3.org/2000/svg"
   xmlns:svg="http://www.w3.org/2000/svg"
   xmlns:rdf="http://www.w3.org/1999/02/22-rdf-syntax-ns#"
   xmlns:cc="http://creativecommons.org/ns#"
   xmlns:dc="http://purl.org/dc/elements/1.1/">
  <defs
     id="defs1437">
    <linearGradient
       inkscape:collect="always"
       id="linearGradient1781">
      <stop
         style="stop-color:#954261;stop-opacity:1"
         offset="0"
         id="stop1777" />
      <stop
         style="stop-color:#ff6322;stop-opacity:0.98363656"
         offset="1"
         id="stop1779" />
    </linearGradient>
    <linearGradient
       gradientTransform="matrix(0.97573206,0,0,0.97573206,-111.76517,-37.182508)"
       gradientUnits="userSpaceOnUse"
       y2="70.679932"
       x2="132.21078"
       y1="42.151531"
       x1="132.21078"
       id="linearGradient1632"
       xlink:href="#linearGradient1630"
       inkscape:collect="always" />
    <linearGradient
       id="linearGradient1630"
       inkscape:collect="always">
      <stop
         id="stop1626"
         offset="0"
         style="stop-color:#60748f;stop-opacity:0.98431373" />
      <stop
         id="stop1628"
         offset="1"
         style="stop-color:#3e5073;stop-opacity:1" />
    </linearGradient>
    <filter
       color-interpolation-filters="sRGB"
       height="1.1311001"
       width="1.1106"
       y="-0.065563001"
       x="-0.055319"
       id="c-9">
      <feGaussianBlur
         id="feGaussianBlur1093"
         stdDeviation="1.1062912" />
    </filter>
    <linearGradient
       gradientUnits="userSpaceOnUse"
       gradientTransform="matrix(0.13235,0,0,0.13075,-32.379,1.0873)"
       y2="269.48999"
       y1="235.14999"
       x2="657.65002"
       x1="319.20999"
       id="a-12">
      <stop
         id="stop1076"
         offset="0"
         stop-color="#e54c18" />
      <stop
         id="stop1078"
         offset="1"
         stop-color="#fec350" />
    </linearGradient>
    <linearGradient
       inkscape:collect="always"
       id="linearGradient2050">
      <stop
         style="stop-color:#6a2b0c;stop-opacity:1;"
         offset="0"
         id="stop2046" />
      <stop
         style="stop-color:#6a2b0c;stop-opacity:0.82352941;"
         offset="0.46019328"
         id="stop2054" />
      <stop
         style="stop-color:#6a2b0c;stop-opacity:0.61960784;"
         offset="0.55980784"
         id="stop2074" />
      <stop
         style="stop-color:#6a2b0c;stop-opacity:0.55294118;"
         offset="0.59674543"
         id="stop2092" />
      <stop
         style="stop-color:#6a2b0c;stop-opacity:0.45882353;"
         offset="0.6603334"
         id="stop2102" />
      <stop
         style="stop-color:#6a2b0c;stop-opacity:0.35294118;"
         offset="0.73342222"
         id="stop2100" />
      <stop
         style="stop-color:#6a2b0c;stop-opacity:0.25882353;"
         offset="0.79290068"
         id="stop2098" />
      <stop
         style="stop-color:#6a2b0c;stop-opacity:0.19215686;"
         offset="0.83187062"
         id="stop2086" />
      <stop
         style="stop-color:#6a2b0c;stop-opacity:0.11372549;"
         offset="0.89167756"
         id="stop2088" />
      <stop
         style="stop-color:#6a2b0c;stop-opacity:0.0627451;"
         offset="0.93840277"
         id="stop2090" />
      <stop
         style="stop-color:#6a2b0c;stop-opacity:0.03921569;"
         offset="0.96329844"
         id="stop2056" />
      <stop
         style="stop-color:#6a2b0c;stop-opacity:0;"
         offset="1"
         id="stop2048" />
    </linearGradient>
    <radialGradient
       inkscape:collect="always"
       xlink:href="#linearGradient2050"
       id="radialGradient2270"
       cx="-571.09357"
       cy="434.78534"
       fx="-571.09357"
       fy="434.78534"
       r="229.44476"
       gradientUnits="userSpaceOnUse"
       gradientTransform="matrix(1.0612895,0,0,1.0612895,400.72106,-182.52731)" />
    <linearGradient
       id="b"
       x2="1"
       gradientTransform="matrix(0.33688162,-19.859257,19.859257,0.33688162,15.949012,26.785076)"
       gradientUnits="userSpaceOnUse">
      <stop
         stop-color="#ff9300"
         offset="0"
         id="stop7" />
      <stop
         stop-color="#ffd702"
         offset="1"
         id="stop9" />
    </linearGradient>
    <linearGradient
       inkscape:collect="always"
       xlink:href="#linearGradient1781"
       id="linearGradient1783"
       x1="8.9036779"
       y1="13.042847"
       x2="8.9036779"
       y2="7.7129984"
       gradientUnits="userSpaceOnUse" />
  </defs>
  <sodipodi:namedview
     id="base"
     pagecolor="#ffffff"
     bordercolor="#666666"
     borderopacity="1.0"
     inkscape:pageopacity="0.0"
     inkscape:pageshadow="2"
     inkscape:zoom="1.9570313"
     inkscape:cx="54.163673"
     inkscape:cy="55.696607"
     inkscape:document-units="mm"
     inkscape:current-layer="layer1"
     inkscape:document-rotation="0"
     showgrid="false"
     units="px"
     inkscape:window-width="1920"
     inkscape:window-height="1000"
     inkscape:window-x="0"
     inkscape:window-y="0"
     inkscape:window-maximized="1"
     inkscape:pagecheckerboard="0" />
  <metadata
     id="metadata1440">
    <rdf:RDF>
      <cc:Work
         rdf:about="">
        <dc:format>image/svg+xml</dc:format>
        <dc:type
           rdf:resource="http://purl.org/dc/dcmitype/StillImage" />
      </cc:Work>
    </rdf:RDF>
  </metadata>
  <g
     inkscape:label="Capa 1"
     inkscape:groupmode="layer"
     id="layer1">
    <g
       style="opacity:0.295"
       transform="matrix(0.97573206,0,0,0.97573206,-65.737228,-37.182508)"
       id="g1702">
      <rect
         ry="6.6098609"
         rx="6.6098609"
         y="40.709618"
         x="69.839508"
         height="29.810888"
         width="29.810888"
         id="rect1634"
         style="fill:none;fill-opacity:1;stroke:#000000;stroke-width:0.1;stroke-linecap:round;stroke-linejoin:round;stroke-miterlimit:4;stroke-dasharray:none;stroke-opacity:0.02" />
      <rect
         style="fill:none;fill-opacity:1;stroke:#000000;stroke-width:0.2;stroke-linecap:round;stroke-linejoin:round;stroke-miterlimit:4;stroke-dasharray:none;stroke-opacity:0.02"
         id="rect1638"
         width="29.810888"
         height="29.810888"
         x="69.839508"
         y="40.709618"
         rx="6.6098609"
         ry="6.6098609" />
      <rect
         ry="6.6098609"
         rx="6.6098609"
         y="40.709618"
         x="69.839508"
         height="29.810888"
         width="29.810888"
         id="rect1640"
         style="fill:none;fill-opacity:1;stroke:#000000;stroke-width:0.3;stroke-linecap:round;stroke-linejoin:round;stroke-miterlimit:4;stroke-dasharray:none;stroke-opacity:0.02" />
      <rect
         style="fill:none;fill-opacity:1;stroke:#000000;stroke-width:0.4;stroke-linecap:round;stroke-linejoin:round;stroke-miterlimit:4;stroke-dasharray:none;stroke-opacity:0.02"
         id="rect1642"
         width="29.810888"
         height="29.810888"
         x="69.839508"
         y="40.709618"
         rx="6.6098609"
         ry="6.6098609" />
      <rect
         ry="6.6098609"
         rx="6.6098609"
         y="40.709618"
         x="69.839508"
         height="29.810888"
         width="29.810888"
         id="rect1644"
         style="fill:none;fill-opacity:1;stroke:#000000;stroke-width:0.5;stroke-linecap:round;stroke-linejoin:round;stroke-miterlimit:4;stroke-dasharray:none;stroke-opacity:0.02" />
      <rect
         style="fill:none;fill-opacity:1;stroke:#000000;stroke-width:0.6;stroke-linecap:round;stroke-linejoin:round;stroke-miterlimit:4;stroke-dasharray:none;stroke-opacity:0.02"
         id="rect1646"
         width="29.810888"
         height="29.810888"
         x="69.839508"
         y="40.709618"
         rx="6.6098609"
         ry="6.6098609" />
      <rect
         ry="6.6098609"
         rx="6.6098609"
         y="40.709618"
         x="69.839508"
         height="29.810888"
         width="29.810888"
         id="rect1648"
         style="fill:none;fill-opacity:1;stroke:#000000;stroke-width:0.7;stroke-linecap:round;stroke-linejoin:round;stroke-miterlimit:4;stroke-dasharray:none;stroke-opacity:0.02" />
      <rect
         style="fill:none;fill-opacity:1;stroke:#000000;stroke-width:0.8;stroke-linecap:round;stroke-linejoin:round;stroke-miterlimit:4;stroke-dasharray:none;stroke-opacity:0.02"
         id="rect1650"
         width="29.810888"
         height="29.810888"
         x="69.839508"
         y="40.709618"
         rx="6.6098609"
         ry="6.6098609" />
      <rect
         ry="6.6098609"
         rx="6.6098609"
         y="40.709618"
         x="69.839508"
         height="29.810888"
         width="29.810888"
         id="rect1652"
         style="fill:none;fill-opacity:1;stroke:#000000;stroke-width:1;stroke-linecap:round;stroke-linejoin:round;stroke-miterlimit:4;stroke-dasharray:none;stroke-opacity:0.02" />
      <rect
         style="fill:none;fill-opacity:1;stroke:#000000;stroke-width:1.2;stroke-linecap:round;stroke-linejoin:round;stroke-miterlimit:4;stroke-dasharray:none;stroke-opacity:0.02"
         id="rect1654"
         width="29.810888"
         height="29.810888"
         x="69.839508"
         y="40.709618"
         rx="6.6098609"
         ry="6.6098609" />
      <rect
         ry="6.6098609"
         rx="6.6098609"
         y="40.709618"
         x="69.839508"
         height="29.810888"
         width="29.810888"
         id="rect1656"
         style="fill:none;fill-opacity:1;stroke:#000000;stroke-width:1.4;stroke-linecap:round;stroke-linejoin:round;stroke-miterlimit:4;stroke-dasharray:none;stroke-opacity:0.02" />
      <rect
         style="fill:none;fill-opacity:1;stroke:#000000;stroke-width:1.6;stroke-linecap:round;stroke-linejoin:round;stroke-miterlimit:4;stroke-dasharray:none;stroke-opacity:0.02"
         id="rect1658"
         width="29.810888"
         height="29.810888"
         x="69.839508"
         y="40.709618"
         rx="6.6098609"
         ry="6.6098609" />
      <rect
         ry="6.6098609"
         rx="6.6098609"
         y="40.709618"
         x="69.839508"
         height="29.810888"
         width="29.810888"
         id="rect1660"
         style="fill:none;fill-opacity:1;stroke:#000000;stroke-width:1.8;stroke-linecap:round;stroke-linejoin:round;stroke-miterlimit:4;stroke-dasharray:none;stroke-opacity:0.02" />
      <rect
         style="fill:none;fill-opacity:1;stroke:#000000;stroke-width:2;stroke-linecap:round;stroke-linejoin:round;stroke-miterlimit:4;stroke-dasharray:none;stroke-opacity:0.02"
         id="rect1662"
         width="29.810888"
         height="29.810888"
         x="69.839508"
         y="40.709618"
         rx="6.6098609"
         ry="6.6098609" />
      <rect
         ry="6.6098609"
         rx="6.6098609"
         y="40.709618"
         x="69.839508"
         height="29.810888"
         width="29.810888"
         id="rect1664"
         style="fill:none;fill-opacity:1;stroke:#000000;stroke-width:2.2;stroke-linecap:round;stroke-linejoin:round;stroke-miterlimit:4;stroke-dasharray:none;stroke-opacity:0.02" />
      <rect
         style="fill:none;fill-opacity:1;stroke:#000000;stroke-width:2.6;stroke-linecap:round;stroke-linejoin:round;stroke-miterlimit:4;stroke-dasharray:none;stroke-opacity:0.02"
         id="rect1666"
         width="29.810888"
         height="29.810888"
         x="69.839508"
         y="40.709618"
         rx="6.6098609"
         ry="6.6098609" />
      <rect
         ry="6.6098609"
         rx="6.6098609"
         y="40.709618"
         x="69.839508"
         height="29.810888"
         width="29.810888"
         id="rect1668"
         style="fill:none;fill-opacity:1;stroke:#000000;stroke-width:3;stroke-linecap:round;stroke-linejoin:round;stroke-miterlimit:4;stroke-dasharray:none;stroke-opacity:0.02" />
      <rect
         style="fill:none;fill-opacity:1;stroke:#000000;stroke-width:3.4;stroke-linecap:round;stroke-linejoin:round;stroke-miterlimit:4;stroke-dasharray:none;stroke-opacity:0.02"
         id="rect1670"
         width="29.810888"
         height="29.810888"
         x="69.839508"
         y="40.709618"
         rx="6.6098609"
         ry="6.6098609" />
      <rect
         ry="6.6098609"
         rx="6.6098609"
         y="40.709618"
         x="69.839508"
         height="29.810888"
         width="29.810888"
         id="rect1672"
         style="fill:none;fill-opacity:1;stroke:#000000;stroke-width:3.8;stroke-linecap:round;stroke-linejoin:round;stroke-miterlimit:4;stroke-dasharray:none;stroke-opacity:0.02" />
      <rect
         style="fill:none;fill-opacity:1;stroke:#000000;stroke-width:4.2;stroke-linecap:round;stroke-linejoin:round;stroke-miterlimit:4;stroke-dasharray:none;stroke-opacity:0.02"
         id="rect1674"
         width="29.810888"
         height="29.810888"
         x="69.839508"
         y="40.709618"
         rx="6.6098609"
         ry="6.6098609" />
      <rect
         ry="6.6098609"
         rx="6.6098609"
         y="40.709618"
         x="69.839508"
         height="29.810888"
         width="29.810888"
         id="rect1676"
         style="fill:none;fill-opacity:1;stroke:#000000;stroke-width:4.6;stroke-linecap:round;stroke-linejoin:round;stroke-miterlimit:4;stroke-dasharray:none;stroke-opacity:0.02" />
      <rect
         style="fill:none;fill-opacity:1;stroke:#000000;stroke-width:5;stroke-linecap:round;stroke-linejoin:round;stroke-miterlimit:4;stroke-dasharray:none;stroke-opacity:0.02"
         id="rect1678"
         width="29.810888"
         height="29.810888"
         x="69.839508"
         y="40.709618"
         rx="6.6098609"
         ry="6.6098609" />
    </g>
    <rect
       ry="6.4494534"
       rx="6.4494534"
       y="2.5391712"
       x="2.4074187"
       height="29.087439"
       width="29.087439"
       id="rect849"
       style="fill:url(#linearGradient1632);fill-opacity:1;stroke-width:2.68768;stroke-linecap:round;stroke-linejoin:round" />
    <path
       style="fill:#ffffff;stroke-width:0.510256"
       d="m 15.846686,8.030342 c -3.854758,0 -6.9582271,3.129149 -6.9582271,7.016031 v 2.806412 c 0,3.886882 3.1034691,7.016031 6.9582271,7.016031 h 1.391248 c 3.854758,0 6.958229,-3.129149 6.958229,-7.016031 v -2.806412 c 0,-3.886882 -3.103471,-7.016031 -6.958229,-7.016031 z m 0.32489,3.061541 h 0.741468 c 2.05587,0 3.71132,1.991276 3.71132,4.464746 v 1.7859 c 0,2.473468 -1.65545,4.464747 -3.71132,4.464747 h -0.741468 c -2.05587,0 -3.71132,-1.991279 -3.71132,-4.464747 v -1.7859 c 0,-2.47347 1.65545,-4.464746 3.71132,-4.464746 z"
       id="path8" />
    <rect
       style="opacity:1;fill:#ffffff;stroke-width:0.423333;stroke-linecap:round;fill-opacity:1"
       id="rect1177"
       width="7.5574646"
       height="3.3694029"
       x="28.405537"
       y="-1.4451107"
       rx="1.2164413"
       ry="1.2164413"
       transform="rotate(46.521752)" />
    <g
       id="g1767">
      <rect
         style="opacity:1;fill:#06062b;fill-opacity:0.0577209;stroke-width:0.423333;stroke-linecap:round"
         id="rect1722"
         width="16.846851"
         height="7.0062599"
         x="0.91569"
         y="6.5898252"
         rx="3.50313"
         ry="3.50313" />
      <rect
         style="opacity:1;fill:#06062b;fill-opacity:0.0577209;stroke-width:0.423333;stroke-linecap:round"
         id="rect1760"
         width="16.846851"
         height="7.0062599"
         x="1.3749672"
         y="7.1197696"
         rx="3.50313"
         ry="3.50313" />
      <rect
         style="opacity:1;fill:#06062b;fill-opacity:0.0577209;stroke-width:0.423333;stroke-linecap:round"
         id="rect1762"
         width="16.846851"
         height="7.0062599"
         x="1.8854846"
         y="7.8649225"
         rx="3.50313"
         ry="3.50313" />
    </g>
    <rect
       style="opacity:1;fill:url(#linearGradient1783);fill-opacity:1;stroke-width:0.423333;stroke-linecap:round"
       id="rect1523"
       width="16.846851"
       height="7.0062599"
       x="0.43350443"
       y="6.0540724"
       rx="3.50313"
       ry="3.50313" />
    <path
       style="fill:#ffffff;stroke-width:0.619283"
       d="M 3.0011769,7.2994228 V 11.634406 H 3.6204603 V 9.7959096 h 0.8515149 c 0.387079,0 0.698425,-0.060001 0.9349732,-0.1814315 C 5.873607,9.3814738 6.0796743,8.9643764 6.0975946,8.6468475 6.0975946,8.2177997 5.9673871,7.8861586 5.7093327,7.6513974 5.4512798,7.4166372 5.0578317,7.2994228 4.5288235,7.2994228 Z m 4.3349846,0 v 4.3349832 h 1.237358 c 0.570173,0 1.022863,-0.190431 1.357101,-0.5709 C 10.264862,10.68303 10.43258,10.13775 10.43258,9.4294196 10.43258,8.7251368 10.269091,8.1962761 9.9427155,7.8400865 9.6202725,7.47985 9.1854145,7.2994228 8.6388345,7.2994228 Z m 4.3349855,0 V 11.634406 H 12.29043 V 9.7765569 h 1.85785 V 9.1572734 H 12.29043 V 7.9187065 h 2.477135 V 7.2994228 Z M 3.6204603,7.9187065 H 4.493747 c 0.6372295,0.044111 0.9957426,0.051361 0.9845639,0.6591982 -0.00991,0.538914 -0.7818216,0.5208874 -1.1659947,0.5793687 H 3.6204603 Z m 4.3349842,0 h 0.561226 c 0.432061,0 0.755229,0.1214303 0.971259,0.3640711 0.21603,0.2382311 0.325366,0.6232877 0.325366,1.1526898 0,0.5338111 -0.113311,0.9286856 -0.33988,1.1889746 -0.221299,0.260289 -0.571607,0.390681 -1.051089,0.390681 h -0.466882 z"
       id="path18" />
  </g>
</svg>

<?xml version="1.0" encoding="UTF-8"?>
<svg id="svg1443" width="128" height="128" version="1.1" viewBox="0 0 33.867 33.867" xmlns="http://www.w3.org/2000/svg" xmlns:cc="http://creativecommons.org/ns#" xmlns:dc="http://purl.org/dc/elements/1.1/" xmlns:rdf="http://www.w3.org/1999/02/22-rdf-syntax-ns#" xmlns:xlink="http://www.w3.org/1999/xlink">
 <defs id="defs1437">
  <linearGradient id="linearGradient1632" x1="132.21" x2="132.21" y1="42.152" y2="70.68" gradientTransform="matrix(.97573 0 0 .97573 -111.77 -37.183)" gradientUnits="userSpaceOnUse">
   <stop id="stop1626" stop-color="#60748f" stop-opacity=".98431" offset="0"/>
   <stop id="stop1628" stop-color="#3e5073" offset="1"/>
  </linearGradient>
  <linearGradient id="linearGradient1783" x1="8.9037" x2="8.9037" y1="13.043" y2="7.713" gradientUnits="userSpaceOnUse">
   <stop id="stop1777" stop-color="#954261" offset="0"/>
   <stop id="stop1779" stop-color="#ff6322" stop-opacity=".98364" offset="1"/>
  </linearGradient>
 </defs>
 <metadata id="metadata1440">
  <rdf:RDF>
   <cc:Work rdf:about="">
    <dc:format>image/svg+xml</dc:format>
    <dc:type rdf:resource="http://purl.org/dc/dcmitype/StillImage"/>
   </cc:Work>
  </rdf:RDF>
 </metadata>
 <g id="layer1">
  <g id="g1702" transform="matrix(.97573 0 0 .97573 -65.737 -37.183)" fill="none" opacity=".295" stroke="#000" stroke-linecap="round" stroke-linejoin="round" stroke-opacity=".02">
   <rect id="rect1634" x="69.84" y="40.71" width="29.811" height="29.811" rx="6.6099" ry="6.6099" stroke-width=".1"/>
   <rect id="rect1638" x="69.84" y="40.71" width="29.811" height="29.811" rx="6.6099" ry="6.6099" stroke-width=".2"/>
   <rect id="rect1640" x="69.84" y="40.71" width="29.811" height="29.811" rx="6.6099" ry="6.6099" stroke-width=".3"/>
   <rect id="rect1642" x="69.84" y="40.71" width="29.811" height="29.811" rx="6.6099" ry="6.6099" stroke-width=".4"/>
   <rect id="rect1644" x="69.84" y="40.71" width="29.811" height="29.811" rx="6.6099" ry="6.6099" stroke-width=".5"/>
   <rect id="rect1646" x="69.84" y="40.71" width="29.811" height="29.811" rx="6.6099" ry="6.6099" stroke-width=".6"/>
   <rect id="rect1648" x="69.84" y="40.71" width="29.811" height="29.811" rx="6.6099" ry="6.6099" stroke-width=".7"/>
   <rect id="rect1650" x="69.84" y="40.71" width="29.811" height="29.811" rx="6.6099" ry="6.6099" stroke-width=".8"/>
   <rect id="rect1652" x="69.84" y="40.71" width="29.811" height="29.811" rx="6.6099" ry="6.6099"/>
   <rect id="rect1654" x="69.84" y="40.71" width="29.811" height="29.811" rx="6.6099" ry="6.6099" stroke-width="1.2"/>
   <rect id="rect1656" x="69.84" y="40.71" width="29.811" height="29.811" rx="6.6099" ry="6.6099" stroke-width="1.4"/>
   <rect id="rect1658" x="69.84" y="40.71" width="29.811" height="29.811" rx="6.6099" ry="6.6099" stroke-width="1.6"/>
   <rect id="rect1660" x="69.84" y="40.71" width="29.811" height="29.811" rx="6.6099" ry="6.6099" stroke-width="1.8"/>
   <rect id="rect1662" x="69.84" y="40.71" width="29.811" height="29.811" rx="6.6099" ry="6.6099" stroke-width="2"/>
   <rect id="rect1664" x="69.84" y="40.71" width="29.811" height="29.811" rx="6.6099" ry="6.6099" stroke-width="2.2"/>
   <rect id="rect1666" x="69.84" y="40.71" width="29.811" height="29.811" rx="6.6099" ry="6.6099" stroke-width="2.6"/>
   <rect id="rect1668" x="69.84" y="40.71" width="29.811" height="29.811" rx="6.6099" ry="6.6099" stroke-width="3"/>
   <rect id="rect1670" x="69.84" y="40.71" width="29.811" height="29.811" rx="6.6099" ry="6.6099" stroke-width="3.4"/>
   <rect id="rect1672" x="69.84" y="40.71" width="29.811" height="29.811" rx="6.6099" ry="6.6099" stroke-width="3.8"/>
   <rect id="rect1674" x="69.84" y="40.71" width="29.811" height="29.811" rx="6.6099" ry="6.6099" stroke-width="4.2"/>
   <rect id="rect1676" x="69.84" y="40.71" width="29.811" height="29.811" rx="6.6099" ry="6.6099" stroke-width="4.6"/>
   <rect id="rect1678" x="69.84" y="40.71" width="29.811" height="29.811" rx="6.6099" ry="6.6099" stroke-width="5"/>
  </g>
  <rect id="rect849" x="2.4074" y="2.5392" width="29.087" height="29.087" rx="6.4495" ry="6.4495" fill="url(#linearGradient1632)" stroke-linecap="round" stroke-linejoin="round" stroke-width="2.6877"/>
  <path id="path8" d="m15.847 8.0303c-3.8548 0-6.9582 3.1291-6.9582 7.016v2.8064c0 3.8869 3.1035 7.016 6.9582 7.016h1.3912c3.8548 0 6.9582-3.1291 6.9582-7.016v-2.8064c0-3.8869-3.1035-7.016-6.9582-7.016zm0.32489 3.0615h0.74147c2.0559 0 3.7113 1.9913 3.7113 4.4647v1.7859c0 2.4735-1.6554 4.4647-3.7113 4.4647h-0.74147c-2.0559 0-3.7113-1.9913-3.7113-4.4647v-1.7859c0-2.4735 1.6554-4.4647 3.7113-4.4647z" fill="#fff" stroke-width=".51026"/>
  <rect id="rect1177" transform="rotate(46.522)" x="28.406" y="-1.4451" width="7.5575" height="3.3694" rx="1.2164" ry="1.2164" fill="#fff" stroke-linecap="round" stroke-width=".42333"/>
  <g id="g1767" fill="#06062b" fill-opacity=".057721" stroke-linecap="round" stroke-width=".42333">
   <rect id="rect1722" x=".91569" y="6.5898" width="16.847" height="7.0063" rx="3.5031" ry="3.5031"/>
   <rect id="rect1760" x="1.375" y="7.1198" width="16.847" height="7.0063" rx="3.5031" ry="3.5031"/>
   <rect id="rect1762" x="1.8855" y="7.8649" width="16.847" height="7.0063" rx="3.5031" ry="3.5031"/>
  </g>
  <rect id="rect1523" x=".4335" y="6.0541" width="16.847" height="7.0063" rx="3.5031" ry="3.5031" fill="url(#linearGradient1783)" stroke-linecap="round" stroke-width=".42333"/>
  <path id="path18" d="m3.0012 7.2994v4.335h0.61928v-1.8385h0.85151c0.38708 0 0.69842-0.060001 0.93497-0.18143 0.46666-0.233 0.67273-0.6501 0.69065-0.96763 0-0.42905-0.13021-0.76069-0.38826-0.99545-0.25805-0.23476-0.6515-0.35197-1.1805-0.35197zm4.335 0v4.335h1.2374c0.57017 0 1.0229-0.19043 1.3571-0.5709 0.33424-0.38048 0.50196-0.92576 0.50196-1.6341 0-0.70428-0.16349-1.2331-0.48986-1.5893-0.32244-0.36024-0.7573-0.54066-1.3039-0.54066zm4.335 0v4.335h0.61928v-1.8578h1.8578v-0.61928h-1.8578v-1.2386h2.4771v-0.61928zm-8.0507 0.61928h0.87329c0.63723 0.044111 0.99574 0.051361 0.98456 0.6592-0.00991 0.53891-0.78182 0.52089-1.166 0.57937h-0.69186zm4.335 0h0.56123c0.43206 0 0.75523 0.12143 0.97126 0.36407 0.21603 0.23823 0.32537 0.62329 0.32537 1.1527 0 0.53381-0.11331 0.92869-0.33988 1.189-0.2213 0.26029-0.57161 0.39068-1.0511 0.39068h-0.46688z" fill="#fff" stroke-width=".61928"/>
 </g>
</svg>
